src/pos-icons/translate-off.svg

<svg height="24" viewBox="0 0 24 24" width="24" xmlns="http://www.w3.org/2000/svg"><path d="m12.17 5.81c-.3.88-.7 1.74-1.17 2.58l1.35 1.35c.76-1.24 1.36-2.56 1.78-3.93h3.03v-2.06h-7.22v-2.06h-2.07v2.06h-1.5l2.06 2.06zm3.36 7.1 1.5 1.5.64-1.72 1.41 3.78 3.31 3.3-3.69-9.83h-2.06zm-14.22-11.6-1.31 1.31 1.13 1.13h-.48v2.06h2.54l2.07 2.07h-.8c.75 1.68 1.78 3.27 3.07 4.7l-5.25 5.18 1.47 1.46 5.16-5.15 3.2 3.2.69-1.84 1.3 1.29-2.1 5.59h2.06l1.16-3.09h1.38l4.78 4.78 1.31-1.31z"/></svg>

<?xml version="1.0" encoding="UTF-8"?><!DOCTYPE svg PUBLIC "-//W3C//DTD SVG 1.1//EN" "http://www.w3.org/Graphics/SVG/1.1/DTD/svg11.dtd"><svg xmlns="http://www.w3.org/2000/svg" xmlns:xlink="http://www.w3.org/1999/xlink" version="1.1" id="mdi-translate-off" width="24" height="24" viewBox="0 0 24 24"><path d="M12.17,5.81C11.87,6.69 11.47,7.55 11,8.39L12.35,9.74C13.11,8.5 13.71,7.18 14.13,5.81H17.16V3.75H9.94V1.69H7.87V3.75H6.37L8.43,5.81H12.17M15.53,12.91L17.03,14.41L17.67,12.69L19.08,16.47L22.39,19.77L18.7,9.94H16.64L15.53,12.91M1.31,1.31L0,2.62L1.13,3.75H0.65V5.81H3.19L5.26,7.88H4.46C5.21,9.56 6.24,11.15 7.53,12.58L2.28,17.76L3.75,19.22L8.91,14.07L12.11,17.27L12.8,15.43L14.1,16.72L12,22.31H14.06L15.22,19.22H16.6L21.38,24L22.69,22.69L1.31,1.31Z" /></svg>
